img/cosmo_roket.svg

<svg width="28" height="28" viewBox="0 0 28 28" fill="none" xmlns="http://www.w3.org/2000/svg">
<path d="M4.23333 11.6334L7.76667 13.1334C8.16667 12.3334 8.59444 11.5445 9.05 10.7667C9.50556 9.98892 9.98889 9.24448 10.5 8.53337L7.86667 8.00003L4.23333 11.6334ZM9.36667 14.3334L13.8 18.7667C15.0667 18.1889 16.2556 17.5334 17.3667 16.8C18.4778 16.0667 19.3778 15.3556 20.0667 14.6667C21.8667 12.8667 23.1889 11.0223 24.0333 9.13337C24.8778 7.24448 25.3333 5.11114 25.4 2.73337C23.0222 2.80003 20.8889 3.25559 19 4.10003C17.1111 4.94448 15.2667 6.2667 13.4667 8.0667C12.7778 8.75559 12.0667 9.65559 11.3333 10.7667C10.6 11.8778 9.94444 13.0667 9.36667 14.3334ZM17 11.1334C16.5556 10.6889 16.3333 10.1389 16.3333 9.48337C16.3333 8.82781 16.5556 8.27781 17 7.83337C17.4444 7.38892 17.9944 7.1667 18.65 7.1667C19.3056 7.1667 19.8556 7.38892 20.3 7.83337C20.7444 8.27781 20.9667 8.82781 20.9667 9.48337C20.9667 10.1389 20.7444 10.6889 20.3 11.1334C19.8556 11.5778 19.3056 11.8 18.65 11.8C17.9944 11.8 17.4444 11.5778 17 11.1334ZM16.5 23.9L20.1333 20.2667L19.6 17.6334C18.8889 18.1445 18.1444 18.6278 17.3667 19.0834C16.5889 19.5389 15.8 19.9667 15 20.3667L16.5 23.9ZM27.3667 0.7667C27.5667 3.78892 27.1889 6.54448 26.2333 9.03337C25.2778 11.5223 23.7 13.8667 21.5 16.0667L21.4333 16.1334L21.3667 16.2L22.1 19.8667C22.1667 20.2 22.15 20.5223 22.05 20.8334C21.95 21.1445 21.7778 21.4223 21.5333 21.6667L15.8333 27.4L13 20.8L7.33333 15.1334L0.733333 12.3L6.46667 6.60003C6.71111 6.35559 6.98889 6.18337 7.3 6.08337C7.61111 5.98337 7.93333 5.9667 8.26667 6.03337L11.9333 6.7667C11.9556 6.74448 11.9778 6.72781 12 6.7167C12.0222 6.70559 12.0444 6.68892 12.0667 6.6667C14.2667 4.4667 16.6111 2.88337 19.1 1.9167C21.5889 0.950033 24.3444 0.5667 27.3667 0.7667ZM2.96667 19.1667C3.74444 18.3889 4.69444 17.9945 5.81667 17.9834C6.93889 17.9723 7.88889 18.3556 8.66667 19.1334C9.44444 19.9111 9.82778 20.8611 9.81667 21.9834C9.80556 23.1056 9.41111 24.0556 8.63333 24.8334C8.05555 25.4111 7.16111 25.8889 5.95 26.2667C4.73889 26.6445 2.92222 27 0.5 27.3334C0.833333 24.9111 1.18333 23.0889 1.55 21.8667C1.91667 20.6445 2.38889 19.7445 2.96667 19.1667ZM4.36667 20.6C4.05556 20.9334 3.77778 21.4556 3.53333 22.1667C3.28889 22.8778 3.07778 23.7889 2.9 24.9C4.01111 24.7223 4.92222 24.5111 5.63333 24.2667C6.34444 24.0223 6.86667 23.7445 7.2 23.4334C7.62222 23.0556 7.83889 22.5834 7.85 22.0167C7.86111 21.45 7.66667 20.9556 7.26667 20.5334C6.84444 20.1334 6.35 19.9389 5.78333 19.95C5.21667 19.9611 4.74444 20.1778 4.36667 20.6Z" fill="#7EB101"/>
</svg>

<svg xmlns="http://www.w3.org/2000/svg" width="28" height="28" fill="none">
  <path fill="#7EB101" d="m4.233 11.633 3.534 1.5c.4-.8.827-1.588 1.283-2.366.456-.778.939-1.523 1.45-2.234L7.867 8l-3.634 3.633Zm5.134 2.7 4.433 4.434a26.195 26.195 0 0 0 3.567-1.967c1.11-.733 2.01-1.444 2.7-2.133 1.8-1.8 3.122-3.645 3.966-5.534.845-1.889 1.3-4.022 1.367-6.4-2.378.067-4.511.523-6.4 1.367-1.889.844-3.733 2.167-5.533 3.967-.69.689-1.4 1.589-2.134 2.7a26.202 26.202 0 0 0-1.966 3.566Zm7.633-3.2c-.444-.444-.667-.994-.667-1.65 0-.655.223-1.205.667-1.65.444-.444.994-.666 1.65-.666.656 0 1.206.222 1.65.666.444.445.667.995.667 1.65 0 .656-.223 1.206-.667 1.65-.444.445-.994.667-1.65.667-.656 0-1.206-.222-1.65-.667ZM16.5 23.9l3.633-3.633-.533-2.634c-.711.512-1.456.995-2.233 1.45-.778.456-1.567.884-2.367 1.284l1.5 3.533ZM27.367.767c.2 3.022-.178 5.777-1.134 8.266-.955 2.49-2.533 4.834-4.733 7.034l-.067.066-.066.067.733 3.667c.067.333.05.655-.05.966-.1.312-.272.59-.517.834l-5.7 5.733L13 20.8l-5.667-5.667-6.6-2.833 5.734-5.7c.244-.244.522-.417.833-.517.311-.1.633-.116.967-.05l3.666.734a.263.263 0 0 1 .067-.05.263.263 0 0 0 .067-.05c2.2-2.2 4.544-3.784 7.033-4.75C21.589.95 24.344.567 27.367.767Zm-24.4 18.4c.777-.778 1.727-1.173 2.85-1.184 1.122-.01 2.072.373 2.85 1.15.777.778 1.16 1.728 1.15 2.85-.011 1.123-.406 2.073-1.184 2.85-.577.578-1.472 1.056-2.683 1.434-1.211.378-3.028.733-5.45 1.066.333-2.422.683-4.244 1.05-5.466.367-1.223.839-2.123 1.417-2.7Zm1.4 1.433c-.311.333-.59.856-.834 1.567-.244.71-.455 1.622-.633 2.733 1.111-.178 2.022-.389 2.733-.633.711-.245 1.234-.523 1.567-.834.422-.377.639-.85.65-1.416a2.026 2.026 0 0 0-.583-1.484 2.026 2.026 0 0 0-1.484-.583 1.875 1.875 0 0 0-1.416.65Z"/>
</svg>
